static/characters/uzukumari/front-sitting.svg

<?xml version="1.0" encoding="UTF-8" standalone="no"?>
<svg
   width="160"
   height="182"
   viewBox="0 0 160 182"
   version="1.1"
   xml:space="preserve"
   style="fill-rule:evenodd;clip-rule:evenodd;stroke-linejoin:round;stroke-miterlimit:1.5;"
   id="svg77"
   sodipodi:docname="front-sitting.svg"
   inkscape:version="1.1.1 (3bf5ae0d25, 2021-09-20)"
   xmlns:inkscape="http://www.inkscape.org/namespaces/inkscape"
   xmlns:sodipodi="http://sodipodi.sourceforge.net/DTD/sodipodi-0.dtd"
   xmlns="http://www.w3.org/2000/svg"
   xmlns:svg="http://www.w3.org/2000/svg"
   xmlns:serif="http://www.serif.com/"><defs
   id="defs81" /><sodipodi:namedview
   id="namedview79"
   pagecolor="#505050"
   bordercolor="#eeeeee"
   borderopacity="1"
   inkscape:pageshadow="0"
   inkscape:pageopacity="0"
   inkscape:pagecheckerboard="0"
   showgrid="false"
   inkscape:zoom="1.5754495"
   inkscape:cx="-0.6347395"
   inkscape:cy="204.06875"
   inkscape:window-width="1037"
   inkscape:window-height="987"
   inkscape:window-x="874"
   inkscape:window-y="0"
   inkscape:window-maximized="0"
   inkscape:current-layer="svg77" />
    <g
   transform="matrix(-1,0,0,1,165.343,-17.17755)"
   id="g75">
        <g
   id="front-standing-sitting"
   serif:id="front-standing/sitting">
            <path
   d="M 51,83 37,90.655 49,95.949 49.612,122 37,129 49.612,134.166 C 63.717,141.435 76.229,141.01 88,137 c 8.122,4.875 13.384,2.125 18,-2.35 L 129,134 v -11 l -6,0.5 c 1.999,-2.101 2.946,-4.622 3,-7.5 v -11.5 h -6 c 1.311,-0.86 2.134,-2.305 1.5,-5.5 L 108,84 97,79 83,66 C 77,61.882 70,62.341 64,66 57.837,69.106 53.274,74.451 51,83 Z"
   style="fill:#ffffff"
   id="path2" />
            <path
   d="M 49.612,84.038 36.343,91 49.121,95.996"
   style="fill:none;stroke:#000000;stroke-width:3px"
   id="path4" />
            <g
   transform="translate(0,38.1692)"
   id="g8">
                <path
   d="M 49.612,84.038 36.343,91 49.121,95.996"
   style="fill:none;stroke:#000000;stroke-width:3px"
   id="path6" />
            </g>
            <path
   d="m 49,102 v 17 z"
   style="fill:none;stroke:#000000;stroke-width:3px"
   id="path10" />
            <path
   d="m 53,77 c 0.023,1.554 -0.232,2.813 -1.5,3"
   style="fill:none;stroke:#000000;stroke-width:3px"
   id="path12" />
            <g
   transform="translate(8.74931,-10.5)"
   id="g16">
                <path
   d="m 53,77 c 0.023,1.554 -0.232,2.813 -1.5,3"
   style="fill:none;stroke:#000000;stroke-width:3px"
   id="path14" />
            </g>
            <path
   d="m 65,66 c 5,-3.165 10,-3.165 15,0"
   style="fill:none;stroke:#000000;stroke-width:3px"
   id="path18" />
            <g
   transform="translate(24.5,19.1868)"
   id="g22">
                <path
   d="m 65,66 c 5,-3.165 10,-3.165 15,0"
   style="fill:none;stroke:#000000;stroke-width:3px"
   id="path20" />
            </g>
            <path
   d="m 88.5,102 c -4.56,4.628 -5.132,9.581 0,15"
   style="fill:none;stroke:#000000;stroke-width:3px"
   id="path24" />
            <g
   transform="translate(-1.18118,19.5)"
   id="g28">
                <path
   d="m 88.5,102 c -4.56,4.628 -5.132,9.581 0,15"
   style="fill:none;stroke:#000000;stroke-width:3px"
   id="path26" />
            </g>
            <path
   d="m 103,102 h 16.5"
   style="fill:none;stroke:#000000;stroke-width:3px"
   id="path30" />
            <path
   d="m 68,107.5 c 1.28,-2.089 2.172,-2.141 4,-1.592 1.118,0.336 1.574,2.358 0.694,3.592 -0.383,0.538 -0.917,0.955 -1.694,1.257 0.654,0.004 1.319,0.346 2,0.672 1.671,0.798 0.803,5.082 -2,4.723 -1.243,-0.159 -2.513,-0.701 -3,-3.152"
   style="fill:none;stroke:#000000;stroke-width:3px"
   id="path32" />
            <path
   d="M 82,63.626 97,79"
   style="fill:none;stroke:#000000;stroke-width:3px"
   id="path34" />
            <g
   transform="translate(24.5,19.3735)"
   id="g38">
                <path
   d="M 82,63.626 97,79"
   style="fill:none;stroke:#000000;stroke-width:3px"
   id="path36" />
            </g>
            <path
   d="m 106,121.5 h 16.5"
   style="fill:none;stroke:#000000;stroke-width:3px"
   id="path40" />
            <path
   d="m 120,104.5 h 6 v 12"
   style="fill:none;stroke:#000000;stroke-width:3px"
   id="path42" />
            <g
   transform="translate(3,19)"
   id="g46">
                <path
   d="m 120,104.5 h 6 v 12"
   style="fill:none;stroke:#000000;stroke-width:3px"
   id="path44" />
            </g>
            <path
   d="m 121,110 h 4.5"
   style="fill:none;stroke:#000000;stroke-width:3px"
   id="path48" />
            <g
   transform="translate(3,19)"
   id="g52">
                <path
   d="m 121,110 h 4.5"
   style="fill:none;stroke:#000000;stroke-width:3px"
   id="path50" />
            </g>
            <path
   d="m 120,115 h 6"
   style="fill:none;stroke:#000000;stroke-width:3px"
   id="path54" />
            <g
   transform="translate(3,19)"
   id="g58">
                <path
   d="m 120,115 h 6"
   style="fill:none;stroke:#000000;stroke-width:3px"
   id="path56" />
            </g>
            <path
   d="m 91.5,105 v 9 c 2.543,3 5.364,3.132 8.5,0 v -9"
   style="fill:none;stroke:#000000;stroke-width:3px"
   id="path60" />
            <g
   transform="matrix(1,0,0,-1,1.25,239.65)"
   id="g64">
                <path
   d="m 91.5,105 v 9 c 2.543,3 5.364,3.132 8.5,0 v -9"
   style="fill:none;stroke:#000000;stroke-width:3px"
   id="path62" />
            </g>
            <g
   transform="matrix(1.33333,0,0,1.33333,-22.6667,-29.8333)"
   id="g68">
                <circle
   cx="68"
   cy="89.5"
   r="1.5"
   id="circle66" />
            </g>
            <g
   transform="matrix(1.33333,0,0,1.33333,-22.6667,8.66667)"
   id="g72">
                <circle
   cx="68"
   cy="89.5"
   r="1.5"
   id="circle70" />
            </g>
        </g>
    </g>
</svg>

<?xml version="1.0" encoding="UTF-8" standalone="no"?>
<!DOCTYPE svg PUBLIC "-//W3C//DTD SVG 1.1//EN" "http://www.w3.org/Graphics/SVG/1.1/DTD/svg11.dtd">
<svg width="160" height="182" viewBox="0 0 160 182" version="1.1" xmlns="http://www.w3.org/2000/svg" xmlns:xlink="http://www.w3.org/1999/xlink" xml:space="preserve" xmlns:serif="http://www.serif.com/" style="fill-rule:evenodd;clip-rule:evenodd;stroke-linejoin:round;stroke-miterlimit:1.5;">
    <g transform="matrix(-1,0,0,1,165.343,0)">
        <g id="front-standing-sitting" serif:id="front-standing/sitting">
            <path d="M51,83L37,90.655L49,95.949L49.612,122L37,129L49.612,134.166C63.717,141.435 76.229,141.01 88,137C96.122,141.875 101.384,139.125 106,134.65L129,134L129,123L123,123.5C124.999,121.399 125.946,118.878 126,116L126,104.5L120,104.5C121.311,103.64 122.134,102.195 121.5,99L108,84L97,79L83,66C77,61.882 70,62.341 64,66C57.837,69.106 53.274,74.451 51,83Z" style="fill:white;"/>
            <path d="M49.612,84.038L36.343,91L49.121,95.996" style="fill:none;stroke:black;stroke-width:3px;"/>
            <g transform="matrix(1,0,0,1,0,38.1692)">
                <path d="M49.612,84.038L36.343,91L49.121,95.996" style="fill:none;stroke:black;stroke-width:3px;"/>
            </g>
            <path d="M49,102L49,119L49,102Z" style="fill:none;stroke:black;stroke-width:3px;"/>
            <path d="M53,77C53.023,78.554 52.768,79.813 51.5,80" style="fill:none;stroke:black;stroke-width:3px;"/>
            <g transform="matrix(1,0,0,1,8.74931,-10.5)">
                <path d="M53,77C53.023,78.554 52.768,79.813 51.5,80" style="fill:none;stroke:black;stroke-width:3px;"/>
            </g>
            <path d="M65,66C70,62.835 75,62.835 80,66" style="fill:none;stroke:black;stroke-width:3px;"/>
            <g transform="matrix(1,0,0,1,24.5,19.1868)">
                <path d="M65,66C70,62.835 75,62.835 80,66" style="fill:none;stroke:black;stroke-width:3px;"/>
            </g>
            <path d="M88.5,102C83.94,106.628 83.368,111.581 88.5,117" style="fill:none;stroke:black;stroke-width:3px;"/>
            <g transform="matrix(1,0,0,1,-1.18118,19.5)">
                <path d="M88.5,102C83.94,106.628 83.368,111.581 88.5,117" style="fill:none;stroke:black;stroke-width:3px;"/>
            </g>
            <path d="M103,102L119.5,102" style="fill:none;stroke:black;stroke-width:3px;"/>
            <path d="M68,107.5C69.28,105.411 70.172,105.359 72,105.908C73.118,106.244 73.574,108.266 72.694,109.5C72.311,110.038 71.777,110.455 71,110.757C71.654,110.761 72.319,111.103 73,111.429C74.671,112.227 73.803,116.511 71,116.152C69.757,115.993 68.487,115.451 68,113" style="fill:none;stroke:black;stroke-width:3px;"/>
            <path d="M82,63.626L97,79" style="fill:none;stroke:black;stroke-width:3px;"/>
            <g transform="matrix(1,0,0,1,24.5,19.3735)">
                <path d="M82,63.626L97,79" style="fill:none;stroke:black;stroke-width:3px;"/>
            </g>
            <path d="M106,121.5L122.5,121.5" style="fill:none;stroke:black;stroke-width:3px;"/>
            <path d="M120,104.5L126,104.5L126,116.5" style="fill:none;stroke:black;stroke-width:3px;"/>
            <g transform="matrix(1,0,0,1,3,19)">
                <path d="M120,104.5L126,104.5L126,116.5" style="fill:none;stroke:black;stroke-width:3px;"/>
            </g>
            <path d="M121,110L125.5,110" style="fill:none;stroke:black;stroke-width:3px;"/>
            <g transform="matrix(1,0,0,1,3,19)">
                <path d="M121,110L125.5,110" style="fill:none;stroke:black;stroke-width:3px;"/>
            </g>
            <path d="M120,115L126,115" style="fill:none;stroke:black;stroke-width:3px;"/>
            <g transform="matrix(1,0,0,1,3,19)">
                <path d="M120,115L126,115" style="fill:none;stroke:black;stroke-width:3px;"/>
            </g>
            <path d="M91.5,105L91.5,114C94.043,117 96.864,117.132 100,114L100,105" style="fill:none;stroke:black;stroke-width:3px;"/>
            <g transform="matrix(1,0,0,-1,1.25,239.65)">
                <path d="M91.5,105L91.5,114C94.043,117 96.864,117.132 100,114L100,105" style="fill:none;stroke:black;stroke-width:3px;"/>
            </g>
            <g transform="matrix(1.33333,0,0,1.33333,-22.6667,-29.8333)">
                <circle cx="68" cy="89.5" r="1.5"/>
            </g>
            <g transform="matrix(1.33333,0,0,1.33333,-22.6667,8.66667)">
                <circle cx="68" cy="89.5" r="1.5"/>
            </g>
        </g>
    </g>
</svg>
